!!!OTL: Heimkehr des Ehemannes Es wohnt ein Mueller an jenem Teich,
!!!ARE: Europa, Mitteleuropa, Deutschland (BRD), Nieder - Hessen
!!!YOR: 1, S. 106
!!    1893 gedruckt in Hamburg
!!!SCT: Q1011D
!!!YEM: Copyright 1995, estate of Helmut Schaffrath.
**kern
*ICvox
*Ivox
*M2/4
*k[f#]
*G:
{8d
=1
8g
8g
8g
8a
=2
8g
8e
4d}
=3
{4g
4a
=4
4b
8r}
{16g
16a
=5
8b
8b
8b
8dd
=6
8dd
16cc
16b
4a}
=7
{8a
16a
16a
8.dd
16cc
=8
16b
16a
16b
16cc
8dd}
{16g
16a
=9
8b
8b
8b
8dd
=10
8dd
16cc
16b
4a}
=11
{8a
16a
16a
8.dd
16cc
=12
4b
8r}
==
!!!AGN: Ballade, Schwank
!! Melodievergleich mit Q0012C : anderes Lied "Edelmann im Habersack" .
!!    2. und 4. Zeile = Refrain auf sinnfreie Silben.
!!!ONB: ESAC (Essen Associative Code) Database: BALLADE
!!!AMT: simple duple
!!!AIN: vox
!!!EED: Helmut Schaffrath
!!!EEV: 1.0
*-
